packages/icons/src/chaos-scenario-builder.svg

<svg viewBox="0 0 22 22" fill="none" xmlns="http://www.w3.org/2000/svg">
<path fill-rule="evenodd" clip-rule="evenodd" d="M2.20874 6.78555C2.20874 6.17803 2.70122 5.68555 3.30873 5.68555H6.46986C7.07737 5.68555 7.56986 6.17803 7.56986 6.78555V6.86933H8.88495V6.78555C8.88495 6.17803 9.37743 5.68555 9.98494 5.68555H13.1255C13.733 5.68555 14.2255 6.17803 14.2255 6.78555V7.97609C14.2255 8.5836 13.733 9.07609 13.1255 9.07609H9.98494C9.37743 9.07609 8.88495 8.5836 8.88495 7.97609V7.96933H7.56986V8.05286C7.56986 8.66037 7.07737 9.15286 6.46986 9.15286H5.20861V10.3205C5.20861 10.5426 5.27699 10.7482 5.41537 10.8942C5.54573 11.0318 5.79952 11.1815 6.30474 11.1815H8.88495V10.9218C8.88495 10.3143 9.37743 9.82183 9.98494 9.82183H13.1461C13.7536 9.82183 14.2461 10.3143 14.2461 10.9218V12.1891C14.2461 12.7967 13.7536 13.2891 13.1461 13.2891H9.98494C9.40853 13.2891 8.93568 12.8458 8.88877 12.2815H6.30474C5.5684 12.2815 4.99912 12.0543 4.61682 11.6507C4.24252 11.2556 4.10862 10.7557 4.10862 10.3205V9.15286H3.30873C2.70122 9.15286 2.20874 8.66037 2.20874 8.05286V6.78555ZM6.46986 6.78555H3.30873V8.05286H6.46986V6.78555ZM13.1255 6.78555L9.98494 6.78555V7.97609L13.1255 7.97609V6.78555ZM9.98494 10.9218H13.1461V12.1891H9.98494V10.9218Z" fill="#4F5162"/>
<path fill-rule="evenodd" clip-rule="evenodd" d="M15.849 2.21094C16.7603 2.21094 17.499 2.94967 17.499 3.86094L17.499 12.1624C17.499 12.4661 17.2528 12.7124 16.949 12.7124C16.6453 12.7124 16.399 12.4661 16.399 12.1624L16.399 3.86094C16.399 3.55718 16.1528 3.31094 15.849 3.31094L4.95485 3.31094C4.6511 3.31094 4.40486 3.55718 4.40486 3.86094L4.40486 4.01025C4.40486 4.314 4.15862 4.56025 3.85486 4.56025C3.55111 4.56025 3.30487 4.314 3.30487 4.01025L3.30487 3.86094C3.30487 2.94967 4.04359 2.21094 4.95485 2.21094L15.849 2.21094ZM13.4561 16.9213C13.4561 17.2251 13.2099 17.4713 12.9061 17.4713L4.95486 17.4713C4.04359 17.4713 3.30487 16.7326 3.30487 15.8213L3.30487 13.2568C3.30487 12.953 3.55111 12.7068 3.85486 12.7068C4.15862 12.7068 4.40486 12.953 4.40486 13.2568L4.40486 15.8213C4.40486 16.1251 4.6511 16.3713 4.95486 16.3713L12.9061 16.3713C13.2099 16.3713 13.4561 16.6176 13.4561 16.9213Z" fill="#4F5162"/>
<path fill-rule="evenodd" clip-rule="evenodd" d="M16.949 11.6133C17.2528 11.6133 17.499 11.8595 17.499 12.1633L17.499 13.6223C17.499 15.7486 15.7753 17.4723 13.6491 17.4723L10.4019 17.4723C10.0982 17.4723 9.85195 17.226 9.85195 16.9223C9.85195 16.6185 10.0982 16.3723 10.4019 16.3723L13.6491 16.3723C15.1678 16.3723 16.399 15.141 16.399 13.6223L16.399 12.1633C16.399 11.8595 16.6453 11.6133 16.949 11.6133Z" fill="#4F5162"/>
<path fill-rule="evenodd" clip-rule="evenodd" d="M18.215 5.61328C19.1263 5.61328 19.865 6.35201 19.865 7.26328L19.865 14.8956C19.865 15.1993 19.6187 15.4456 19.315 15.4456C19.0112 15.4456 18.765 15.1993 18.765 14.8956L18.765 7.26328C18.765 6.95952 18.5188 6.71328 18.215 6.71328L16.9491 6.71328C16.6453 6.71328 16.3991 6.46704 16.3991 6.16328C16.3991 5.85952 16.6453 5.61328 16.9491 5.61328L18.215 5.61328ZM15.967 19.3159C15.967 19.6196 15.7208 19.8659 15.417 19.8659L7.79024 19.8659C6.87898 19.8659 6.14026 19.1271 6.14026 18.2159L6.14026 17.0447C6.14026 16.741 6.3865 16.4947 6.69025 16.4947C6.99401 16.4947 7.24025 16.741 7.24025 17.0447L7.24025 18.2159C7.24025 18.5196 7.48649 18.7659 7.79024 18.7659L15.417 18.7659C15.7208 18.7659 15.967 19.0121 15.967 19.3159Z" fill="#4F5162"/>
<path fill-rule="evenodd" clip-rule="evenodd" d="M19.315 14.3457C19.6187 14.3457 19.865 14.5919 19.865 14.8957L19.865 16.016C19.865 18.1423 18.1413 19.866 16.015 19.866L13.0026 19.866C12.6989 19.866 12.4526 19.6197 12.4526 19.316C12.4526 19.0122 12.6989 18.766 13.0026 18.766L16.015 18.766C17.5338 18.766 18.765 17.5348 18.765 16.016L18.765 14.8957C18.765 14.5919 19.0112 14.3457 19.315 14.3457Z" fill="#4F5162"/>
</svg>

<svg viewBox="0 0 22 22" fill="currentColor" xmlns="http://www.w3.org/2000/svg"><path fill-rule="evenodd" clip-rule="evenodd" d="M2.209 6.786a1.1 1.1 0 0 1 1.1-1.1h3.16a1.1 1.1 0 0 1 1.1 1.1v.083h1.316v-.083a1.1 1.1 0 0 1 1.1-1.1h3.14a1.1 1.1 0 0 1 1.1 1.1v1.19a1.1 1.1 0 0 1-1.1 1.1h-3.14a1.1 1.1 0 0 1-1.1-1.1V7.97H7.57v.084a1.1 1.1 0 0 1-1.1 1.1H5.209v1.167c0 .223.068.428.206.574.13.138.385.287.89.287h2.58v-.26a1.1 1.1 0 0 1 1.1-1.1h3.161a1.1 1.1 0 0 1 1.1 1.1v1.268a1.1 1.1 0 0 1-1.1 1.1H9.985a1.1 1.1 0 0 1-1.096-1.008H6.305c-.737 0-1.306-.227-1.688-.63a1.92 1.92 0 0 1-.508-1.33v-1.17h-.8a1.1 1.1 0 0 1-1.1-1.1V6.786Zm4.26 0H3.31v1.267h3.16V6.786Zm6.657 0H9.985v1.19h3.14v-1.19Zm-3.141 4.136h3.161v1.267H9.985v-1.267Z" fill="#4F5162"/><path fill-rule="evenodd" clip-rule="evenodd" d="M15.849 2.21c.911 0 1.65.74 1.65 1.65v8.302a.55.55 0 0 1-1.1 0V3.861a.55.55 0 0 0-.55-.55H4.955a.55.55 0 0 0-.55.55v.15a.55.55 0 0 1-1.1 0v-.15c0-.911.739-1.65 1.65-1.65h10.894Zm-2.393 14.711a.55.55 0 0 1-.55.55H4.955a1.65 1.65 0 0 1-1.65-1.65v-2.564a.55.55 0 1 1 1.1 0v2.564c0 .304.246.55.55.55h7.951a.55.55 0 0 1 .55.55Z" fill="#4F5162"/><path fill-rule="evenodd" clip-rule="evenodd" d="M16.949 11.613a.55.55 0 0 1 .55.55v1.46a3.85 3.85 0 0 1-3.85 3.85h-3.247a.55.55 0 0 1 0-1.1h3.247a2.75 2.75 0 0 0 2.75-2.75v-1.46a.55.55 0 0 1 .55-.55Z" fill="#4F5162"/><path fill-rule="evenodd" clip-rule="evenodd" d="M18.215 5.613c.911 0 1.65.739 1.65 1.65v7.633a.55.55 0 0 1-1.1 0V7.263a.55.55 0 0 0-.55-.55h-1.266a.55.55 0 1 1 0-1.1h1.266Zm-2.248 13.703a.55.55 0 0 1-.55.55H7.79a1.65 1.65 0 0 1-1.65-1.65v-1.171a.55.55 0 0 1 1.1 0v1.17c0 .305.246.55.55.55h7.627a.55.55 0 0 1 .55.55Z" fill="#4F5162"/><path fill-rule="evenodd" clip-rule="evenodd" d="M19.315 14.346a.55.55 0 0 1 .55.55v1.12a3.85 3.85 0 0 1-3.85 3.85h-3.012a.55.55 0 0 1 0-1.1h3.012a2.75 2.75 0 0 0 2.75-2.75v-1.12a.55.55 0 0 1 .55-.55Z" fill="#4F5162"/></svg>
